X:12
T:Eruz an hini
M:2/4
L:1/4
K:F
F3//G// A3//G//|A2|c3//F// F3//G//|F-F/z/|F3//G// A3//G//|G2|
D3//F// E3//D//|C-C/z/|F3//G// A3//G//|Ac3//B//|AG|HF2||
